img/photography-icon.svg

<svg width="46" height="47" viewBox="0 0 46 47" fill="none" xmlns="http://www.w3.org/2000/svg">
<path fill-rule="evenodd" clip-rule="evenodd" d="M22.9747 46.5592C35.6205 46.5592 45.872 36.3077 45.872 23.6618C45.872 11.016 35.6205 0.764526 22.9747 0.764526C10.3288 0.764526 0.0773544 11.016 0.0773544 23.6618C0.0773544 36.3077 10.3288 46.5592 22.9747 46.5592Z" fill="#5454D4" fill-opacity="0.1"/>
<path d="M18.6695 32.1792H27.9435C30.3859 32.1792 31.3593 30.6837 31.4743 28.8608L31.9345 21.5513C32.0584 19.6399 30.5363 18.0205 28.616 18.0205C28.0762 18.0205 27.5807 17.7108 27.3329 17.2329L26.6957 15.9498C26.2887 15.1445 25.2268 14.4808 24.3242 14.4808H22.2977C21.3862 14.4808 20.3243 15.1445 19.9173 15.9498L19.2801 17.2329C19.0323 17.7108 18.5368 18.0205 17.997 18.0205C16.0767 18.0205 14.5546 19.6399 14.6785 21.5513L15.1387 28.8608C15.2449 30.6837 16.2271 32.1792 18.6695 32.1792Z" stroke="#5454D4" stroke-width="1.32738" stroke-linecap="round" stroke-linejoin="round"/>
<path d="M21.9791 19.7904H24.6339" stroke="#5454D4" stroke-width="1.32738" stroke-linecap="round" stroke-linejoin="round"/>
<path d="M23.3065 28.6394C24.8905 28.6394 26.1825 27.3475 26.1825 25.7634C26.1825 24.1794 24.8905 22.8875 23.3065 22.8875C21.7225 22.8875 20.4305 24.1794 20.4305 25.7634C20.4305 27.3475 21.7225 28.6394 23.3065 28.6394Z" stroke="#5454D4" stroke-width="1.32738" stroke-linecap="round" stroke-linejoin="round"/>
</svg>

<svg xmlns="http://www.w3.org/2000/svg" fill="none" viewBox="0 0 46 47"><path fill="#5454D4" fill-opacity=".1" fill-rule="evenodd" d="M22.975 46.56c12.645 0 22.897-10.252 22.897-22.898C45.872 11.016 35.62.765 22.975.765 10.329.765.077 11.016.077 23.662c0 12.646 10.252 22.897 22.898 22.897z" clip-rule="evenodd"/><path stroke="#5454D4" stroke-linecap="round" stroke-linejoin="round" stroke-width="1.327" d="M18.67 32.18h9.273c2.443 0 3.416-1.496 3.531-3.32l.46-7.309a3.321 3.321 0 0 0-3.318-3.53c-.54 0-1.035-.31-1.283-.788l-.637-1.283c-.407-.805-1.47-1.47-2.372-1.47h-2.026c-.912 0-1.974.665-2.38 1.47l-.638 1.283a1.454 1.454 0 0 1-1.283.787 3.321 3.321 0 0 0-3.319 3.531l.46 7.31c.107 1.823 1.09 3.318 3.531 3.318zM21.98 19.79h2.654"/><path stroke="#5454D4" stroke-linecap="round" stroke-linejoin="round" stroke-width="1.327" d="M23.306 28.64a2.882 2.882 0 0 0 2.877-2.877 2.882 2.882 0 0 0-2.877-2.876 2.882 2.882 0 0 0-2.876 2.876 2.882 2.882 0 0 0 2.877 2.876z"/></svg>
